X: 23568
T: Lighthouse Keeper's
R: waltz
M: 3/4
K: Amajor
e2- ec e2|d2 c2 B2|A2- Ac e2|f2- fg a2|e2- ec A2|f2- fe d2|dc- c2 A2|B4 c/d/|
e2- ec e2|dc- c2 B2|A2- Ac e2|f2- fg a2|ec- c2 A2|1 d2 c2 B2|A6-|A4:|
2 dB- B2 G2|A6-|A4 ag||
f2- fe d2|ce- e2 c2|B2- Bc d2|c2 a2 g2|f2- fe d2|ca- a2 gf|e2- ec A2|B6||
|:f2- fg a2|e2- eg a2|fe- e2 d2|ce- e2 E2|F2- Fd c2|B2- BA G2|1 A6-|1 A4 ag:|

